resources/icons/16px/modal-filled.svg

<svg xmlns="http://www.w3.org/2000/svg" viewBox="0 0 16 16">
  <path d="M15 1H1c-.55 0-1 .45-1 1v12c0 .55.45 1 1 1h14c.55 0 1-.45 1-1V2c0-.55-.45-1-1-1m1 4H0V3h16zm-3-2h-2V1h2z"/>
</svg>

<?xml version="1.0" encoding="UTF-8"?>
<svg width="16px" height="16px" viewBox="0 0 16 16" version="1.1" xmlns="http://www.w3.org/2000/svg" xmlns:xlink="http://www.w3.org/1999/xlink">
    <title>modal-filled</title>
    <g id="modal-filled" stroke="none" stroke-width="1" fill="none" fill-rule="evenodd">
        <path d="M15,1 L1,1 C0.45,1 0,1.45 0,2 L0,14 C0,14.55 0.45,15 1,15 L15,15 C15.55,15 16,14.55 16,14 L16,2 C16,1.45 15.55,1 15,1 Z M16,5 L0,5 L0,3 L16,3 L16,5 Z M13,3 L11,3 L11,1 L13,1 L13,3 Z" id="Shape" fill="#000000" fill-rule="nonzero"></path>
    </g>
</svg>
